X:1
T: Delaware Hornpipe
C:
R:Reel
Q: 232
K:G
M:4/4
L:1/8
|:dc|BG Bd BG Bd|gf ge dB GB|ec dB cA BG|F2 A2 A2 dc|
BG Bd BG Bd|gf ge dB GB|ec dB cA dc|B2 G2 G2 g2|
dg Bg dg Bg|dg ba gf ed|ea ca ea ca|e2 ag fe d^c|
dg Bg dg Bg|dg ba gf ed|ea ba gf ef|g2 g2 g2:|
